!! 00000] ST[
!!!OTL: Krti
!!!ARE: Asia, SÅdasien, Indien
!! Ethnic Group: Inder
!!!YOR: oral
!!!SCT: C0005
!!!YEM: Copyright 1995, estate of Helmut Schaffrath.
**kern
*ICvox
*Ivox
*M4/4
*k[c-e-a-]
*c:
{8r
8c
8c
8c
4g
6g
12g
=1
4.g
8g
12f
12e-
12f
16g
16f
16e-
16d}
=2
{8e-
8c
8c
8c
4g
6g
12g
=3
4.g
8g
12f
12e-
12f
16g
16f
16e-
16d}
=4
{8e-
8c
8c
8c
4g
6g
12g
=5
4.g
8g
12f
12e-
12f
16g
16f
16e-
16d}
=6
{8e-
8e-
8f
8g
16g
16f
16e-
16d
12e-
6c}
=7
{8g
8a
8b-
6.cc
12cc
=8
1cc}
=9
{8g
8cc
8cc
4cc
12cc
6cc
=10
4.cc
8g
8cc
8cc
12cc
12a
24cc
24a
=11
1g}
==
!!!AGN: Gesang, Gebet, Krti
!! Teiltrankskription!
!!    s. Schaffrath 1978b und Teilcurriculum 1979. Aufnahme vorhanden!
!!!AMT: simple quadruple
!!!AIN: vox
!!!EED: Helmut Schaffrath
!!!EEV: 1.0
*-
